X:1720
T:Limerick Junction
M:C|
L:1/8
N:"collected by J. O'Neill"
B:O'Neill's 1720
R:Hornpipe
Z:"Transcribed by Bob Safranek, rjs@gsp.org"
K:D
(A>"   S"G) | F2 F>E F>Ad>A | B>G ((3FED) C>D E2 | F>Ad>f a>fd>f |\
(3efd (3cdB (3ABG (3FGE |
           F2 F>E F>Ad>A | B>G  (3FED  C>DE>c | d>cd>A B>G (3EFG | F2 D2 HD2 ||
  (e>d)  | c>de>f g>ec>e | d>e  (3fga  b>af>a | a>ge>g g>fd>f | e2 a2 a2 e>d |
           c>de>f g>ec>e |    d>ef>g   a>fd>f | g>fe>g g>ed>f |\
(3efd (3cdB (3ABG (3FG"   D.S."E |]


